X: 3292
T: Miss Grant of Grant.   a Reel.
C: D.D.
%R: reel
B: Niel Gow & Sons "Complete Repository" v.3 p.29 #2
Z: 2021 John Chambers <jc:trillian.mit.edu>
M: C|
L: 1/8
K: F
% - - - - - - - - - -
V: 1 staves=2
c |\
AF-F>C TF2Ac | dfcf AGG>c | AFF>C D>E Fd | c<A f>c AFF :| c | A>cfc Afcf | dfcf AGG>B |
A>c fc Afcf | egce Tf2f>c || A>cfc Afcf | dfcA TG>ABd | cA FC D>E Fd | c<A f>c AFF |]
% - - - - - - - - - -
V: 2 clef=bass middle=d
z | f2f2 F2A2 | B2A2 G2G2 | F2f2 F2A2 | c2C2 F2F :| z | f2f2 f2a2 | b2a2 g2g2 |
f2f2 f2a2 | c'2c2 f2f2 || f2f2 f2a2 | b2a2 g2e2 | f2A2 B2B2 | c2C2 F2F |]


